X:2204
T:Broken Pledge, The
R:reel
D:Paul McGrattan & Paul O'Shaughnessy: Within a Mile of Dublin
Z:Usually played in Ddor, see #56
Z:id:hn-reel-734
M:C|
K:Edor
edBA BE~E2|dBAG FDDF|EFGA Beed|(3BcB Ad Bfgf|
edBA ~B3c|dBAG FDDF|EFGA Beed|(3BcB AF FEE2:|
|:edBA (3Bcd ef|g2eg fdBc|dAFA ~d3e|f2eg fdBd|
edBA (3Bcd ef|g2eg fdBA|~G3A Beed|(3BcB AF FEE2:|


